!!!COA:	Josquin des Prez
!!!CDT:	~1450-1521/08/27
!!!OPR:	Missa Mi mi
!!!ONM:	4
!!!OTL:	Sanctus
!!!AGN:	Mass; Sanctus
!!!SCT:	NJE 99.1
!!!SCA:	New Josquin Edition 99.1
!!!voices:	4
!!!voices-OPR:	4
**kern	**kern	**kern	**kern
*staff4	*staff3	*staff2	*staff1
*Ivox	*Ivox	*Ivox	*Ivox
*I"Bassus	*I"Tenor	*I"Contratenor	*I"Superius
*I'B	*I'T	*I'Ct	*I'S
*>[A,B,C,D,E,F,C]	*>[A,B,C,D,E,F,C]	*>[A,B,C,D,E,F,C]	*>[A,B,C,D,E,F,C]
*>A	*>A	*>A	*>A
*clefF4	*clefF4	*clefGv2	*clefG2
*k[]	*k[]	*k[]	*k[]
*M3/1	*M3/1	*M3/1	*M3/1
*met(O)	*met(O)	*met(O)	*met(O)
=1-	=1-	=1-	=1-
0.r	1.B	0.r	1r
.	.	.	1.b
.	2E\	.	.
.	1E	.	.
.	.	.	2e/
=1	=2	=1	=2
!!section: Sanctus
!!!OMD:	Sanctus
1r	2r	1r	1e
.	2E\	.	.
1.E	2.G\	1r	2r
.	.	.	1g
.	4A\	.	.
.	2B\	[1e	.
2AA/	[2c\	.	2a/
=2	=3	=2	=3
1AA	2c\]	2e\]	0cc
.	1c	2A/	.
1A	.	1A	.
.	4B\	.	.
.	4A\	.	.
1E	2.G\	2r	[1b
.	.	[2e\	.
.	4A\	.	.
=3	=4	=3	=4
1G	4B\	2e\]	1b]
.	4c\	.	.
.	1d	4d\	.
.	.	4e\	.
0F	.	2f\	2a/
.	2c\	1e	1cc
.	1A	.	.
.	.	2d\	4b\
.	.	.	4a/
=4	=5	=4	=5
1.E	2B\	1e	1.g
.	2.c\	.	.
.	.	1r	.
.	4B\	.	.
2.F\	4A\	.	2.a/
.	4G\	.	.
.	1F	1A	.
4E\	.	.	4g/
2D\	.	.	2f/
=5	=6	=5	=6
1C	1G	2.c\	1e
.	.	4B\	.
2r	2F\	2A/	2f/
2.E\	2E\	1G	2.g/
.	1C	.	.
4D\	.	.	4f/
2C/	.	2A/	2e/
=6	=7	=6	=7
2BB/	2r	2B\	2d/
2.AA/	2.C/	2.c\	2c/
.	.	.	1A
4BB/	4D\	4B\	.
2C/	2E\	1A	.
2D\	2F\	.	1B
2E\	2G\	2G#i/	.
=7	=8	=7	=8
0.AA	1E	1A	0A
.	1F	1r	.
.	1E	1A	1r
=8	=9	=8	=9
0.r	2r	0.c	0a
.	2.A\	.	.
.	4G\	.	.
.	2F\	.	.
.	1E	.	1g
=9	=10	=9	=10
0.r	2.D\	0.d	2f/
.	.	.	1a
.	4E\	.	.
.	2F\	.	.
.	2G\	.	2g/
.	1D	.	2f/
.	.	.	4e/
.	.	.	4d/
=10	=11	=10	=11
1r	2r	0A	1.c
.	1F	.	.
1r	.	.	.
.	4E\	.	1cc
.	4D\	.	.
1AA	1C	1c	.
.	.	.	4b\
.	.	.	4a/
=11	=12	=11	=12
1.C	1.E	2.c\	1g
.	.	4B\	.
.	.	4A/	2r
.	.	4G/	.
2BB/	1D	1G	2g/
1AA	.	.	2a/
.	2C/	2F#i/	2cc\
=12	=13	=12	=13
0.GG	2D\	1G	2b\
.	1G	.	1g
.	.	1r	.
.	2A\	.	4f/
.	.	.	4e/
.	1B	1G	1d
=13	=14	=13	=14
0C	2.c\	2A/	1c
.	.	1G	.
.	4B\	.	.
.	4A\	.	1r
.	4G\	.	.
.	1G	1c	.
1D	.	.	1f
.	2F\	2B\	.
=14	=15	=14	=15
2.C/	1G	0c	2.e/
4D\	.	.	4f/
2E\	1r	.	2g/
1F	.	.	1a
.	1r	2.d\	.
2G\	.	.	2b\
.	.	8c\L	.
.	.	8B\J	.
=15	=16	=15	=16
2A\	1r	2A/	2cc\
2E\	.	2G/	2.b\
1F	1r	1A	.
.	.	.	4a/
.	.	.	1a
1E	2r	1B	.
.	[2E\	.	2g#i/
=16	=17	=16	=17
2AA/	2E\]	[0.A	2.a/
1D	2F\	.	.
.	.	.	4g/
.	2D\	.	4f/
.	.	.	4e/
2C/	2E\	.	1e
1D	1F	.	.
.	.	.	2d/
=17	=18	=17	=18
1AA	[0.El	1A]	[0.el
1r	.	1B	.
1AA	.	1c	.
=18	=19	=18	=19
0.El	0.E]	0.Bl	0.e]
!!LO:LB:i:g=z
=19||	=20||	=19||	=20||
*>B	*>B	*>B	*>B
*clefF4	*clefF4	*clefGv2	*clefG2
*k[]	*k[]	*k[]	*k[]
*M3/1	*M3/1	*M3/1	*M3/1
*met(O)	*met(O)	*met(O)	*met(O)
!!section: Pleni sunt celi
!!!OMD: Pleni sunt celi
1r	0.r	2B\	0.r
.	.	2c\	.
1r	.	2B\	.
.	.	1e	.
2E\	.	.	.
2F\	.	2d\	.
=20	=21	=20	=21
2E\	0.r	2e\	1r
1A	.	2.c\	.
.	.	.	1r
.	.	4A/	.
2G\	.	2B\	.
2A\	.	2A/	1r
[2F\	.	[2d\	.
=21	=22	=21	=22
4F\]	0.r	2d\]	0.r
4D\	.	.	.
2E\	.	2c\	.
2D\	.	2d\	.
1G	.	2.B\	.
.	.	4G/	.
2F\	.	2A/	.
=22	=23	=22	=23
2G\	0.r	2G/	0.r
2.E\	.	1c	.
4C/	.	.	.
2D\	.	2B\	.
2C/	.	2c\	.
[2F\	.	[2A/	.
=23	=24	=23	=24
2F\]	0.r	4A/]	0.r
.	.	4F/	.
2E\	.	2G/	.
0F	.	2F/	.
.	.	2c\	.
.	.	4d\	.
.	.	4c\	.
.	.	[2f\	.
=24	=25	=24	=25
1G	0.r	2f\]	0.r
.	.	2e\	.
0F	.	2.f\	.
.	.	8e\L	.
.	.	8d\J	.
.	.	2c\	.
.	.	2d\	.
=25	=26	=25	=26
1A	0.r	2.c\	0.r
.	.	8B/L	.
.	.	8A/J	.
2G\	.	2B\	.
2F\	.	2A/	.
1E	.	2.G/	.
.	.	8F/L	.
.	.	8E/J	.
=26	=27	=26	=27
2D\	0.r	2F/	0.r
2C/	.	1E	.
1AA	.	.	.
.	.	1A	.
1BB	.	.	.
.	.	2G#i/	.
=27	=28	=27	=28
2.AA/	0.r	1.A	0.r
4BB/	.	.	.
4C/	.	.	.
4AA/	.	.	.
1D	.	2B\	.
.	.	2A/	.
2F\	.	[2d\	.
=28	=29	=28	=29
1E	0.r	2d\]	0.r
.	.	2c#i\	.
2.D\	.	1.d	.
4E\	.	.	.
4F\	.	.	.
4D\	.	.	.
[2G\	.	2e\	.
=29	=30	=29	=30
2G\]	0.r	2d\	0.r
2B\	.	1g	.
1A	.	.	.
.	.	2f\	.
2G\	.	2e\	.
[2A\	.	[2f\	.
=30	=31	=30	=31
4A\]	0.r	4f\]	0.r
4G\	.	4e\	.
2F\	.	2d\	.
2E\	.	2c\	.
2D\	.	1d	.
1E	.	.	.
.	.	2c#i\	.
=31	=32	=31	=32
0.D	1r	0.d	1r
.	1r	.	1r
.	1A	.	1f
=32	=33	=32	=33
0.r	2G\	0.r	2e/
.	2A\	.	2f/
.	2B\	.	2g/
.	2.c\	.	2.a/
.	4B\	.	4g/
.	2A\	.	2f/
=33	=34	=33	=34
0.r	2.G\	1r	2e/
.	.	.	2d/
.	4F\	.	.
.	4E\	1r	2g/
.	4D\	.	.
.	1d	.	2f/
.	.	1A	1e
.	2c\	.	.
=34	=35	=34	=35
1r	2d\	2B\	[0.d
.	2D\	1A	.
1r	2F\	.	.
.	2G\	1G	.
1A	1D	.	.
.	.	2F/	.
=35	=36	=35	=36
2B\	2r	2G/	1d]
1A	2.d\	2D/	.
.	.	2F/	1r
.	4c\	.	.
1G	2B\	2G/	.
.	1A	1D	1r
2F\	.	.	.
=36	=37	=36	=37
2G\	2G\	2r	0d
2D\	2B\	2.d\	.
2F\	4A\	.	.
.	4G\	4c\	.
2G\	1G	2B\	.
1D	.	1A	1r
.	2F#i\	.	.
=37	=38	=37	=38
2r	1.G	2G/	0.r
1E	.	2c\	.
.	.	4B\	.
.	.	4A/	.
2C/	2A\	1A	.
1BB	1B	.	.
.	.	2G#i/	.
=38	=39	=38	=39
2AA/	0.c	0A	1r
2.A\	.	.	.
.	.	.	1r
4G\	.	.	.
2F\	.	.	.
2E\	.	1r	2r
[2F\	.	.	[2a/
=39	=40	=39	=40
4F\]	[0.A	1r	4a/]
4E\	.	.	4g/
2D\	.	.	2f/
2C/	.	2r	2e/
2D\	.	2.A/	2.f/
2C/	.	.	.
.	.	4G/	4e/
2D\	.	2F/	2d/
=40	=41	=40	=41
1AA	0.A]	2E/	2c/
.	.	2C/	1e
1r	.	1D	.
.	.	.	1d
1AA	.	1E	.
.	.	.	2c#i/
=41	=42	=41	=42
1BB-	2r	1D	1d
.	1F	.	.
2AA/	.	1A	2r
1AA	2E\	.	2e/
.	2F\	1B	2d/
2GG/	2G\	.	2B/
=42	=43	=42	=43
2.AA/	2E\	1A	2.c/
.	2F\	.	.
4BB/	.	.	4d/
2C/	2E\	2r	2e/
1D	2D\	1A	1f
.	2F\	.	.
2E\	2E\	2G/	2g/
=43	=44	=43	=44
2.F\	1D	2F/	2.a/
.	.	1D	.
4E\	.	.	4g/
2D\	0A	.	2f/
2C/	.	2E/	2e/
1D	.	1F	1d
=44	=45	=44	=45
0.AAl	0.Al	0.El	0.cl
!!LO:LB:i:g=z
=45||	=46||	=45||	=46||
*>C	*>C	*>C	*>C
*clefF4	*clefF4	*clefGv2	*clefG2
*k[]	*k[]	*k[]	*k[]
*M3/1	*M3/1	*M3/1	*M3/1
*met(O)	*met(O)	*met(O)	*met(O)
!!section: Osanna
!!!OMD: Osanna
0AA	0E	1A	0c
.	.	2A/	.
.	.	1A	.
1D	1F	.	1d
.	.	2F/	.
=46	=47	=46	=47
2C/	1E	2G/	2e/
2AA/	.	2A/	2c/
1BB-	1D	2F/	4d/
.	.	.	2d/
.	.	2G/	.
.	.	.	4B/
1AA	1A	[1E	2.c/
.	.	.	4A/
=47	=48	=47	=48
2r	2G\	2E/]	2B/
2AA/	2A\	2F/	2A/
2GG/	2B\	2G/	2r
1AA	2.c\	2C/	2A/
.	.	1E	4c/
.	4B\	.	4d/
2C/	2A\	.	4e/
.	.	.	4f/
=48	=49	=48	=49
2BB-/	2G\	2r	2g/
2AA/	2A\	1.c	2.f/
1C	1E	.	.
.	.	.	4e/
.	.	.	1e
1D	1F	1A	.
.	.	.	2d/
=49	=50	=49	=50
2r	0E	2B\	1e
1AA	.	2.c\	.
.	.	.	2r
.	.	8B/L	.
.	.	8A/J	.
2C/	.	4G/	2e/
.	.	4A/	.
2BB/	2r	2B\	4d/
.	.	.	4B/
2AA/	2C/	4E/	[2c/
.	.	[4A/	.
=50	=51	=50	=51
2C/	2E\	4A/]	2c/]
.	.	4G/	.
2D\	2F\	2F/	2A/
1E	1G	2E/	4G/
.	.	.	4A/
.	.	2G/	4B/
.	.	.	4c/
2F\	2F\	2A/	2d/
[2G\	[2E\	[2B\	[2e/
=51	=52	=51	=52
2G\]	2E\]	2B\]	2e/]
2E\	2C/	2c\	2g/
2F\	2D\	2A/	2f/
1G	2E\	2G/	2.e/
.	2C/	1c	.
.	.	.	4d/
2C/	[2G\	.	2c/
=52	=53	=52	=53
2E\	2G\]	2r	2B/
2F\	2A\	2c\	2A/
2G\	2G\	2B\	2r
4F\	1c	1G	2c/
4E\	.	.	.
1D	.	.	2d/
.	2B\	2F/	2f/
=53	=54	=53	=54
2C/	0.c	2G/	2e/
1F	.	2A/	1a
.	.	2F/	.
2E\	.	2G/	2g/
1F	.	1A	1f
=54	=55	=54	=55
1C	2r	1G	1e
.	1c	.	.
2r	.	2F/	2r
2GG/	2B\	2G/	2d/
2C/	1A	2E/	2e/
2D\	.	2D/	2f/
=55	=56	=55	=56
2.GG/	0G	2r	2.g/
.	.	1D	.
4AA/	.	.	8f/L
.	.	.	8e/J
2BB/	.	.	2d/
2C/	.	2E/	2g/
2D\	1r	2D/	2f/
[2E\	.	2C/	[2g/
=56	=57	=56	=57
4E\]	[0.G	1E	4g/]
4D\	.	.	4f/
2C/	.	.	2e/
2BB/	.	2r	2d/
2C/	.	2E/	2.g/
2GG/	.	2D/	.
.	.	.	4f/
[2C/	.	2E/	4e/
.	.	.	4d/
=57	=58	=57	=58
2C/]	1G]	2C/	2e/
2BB/	.	2D/	1d
1AA	1C	2E/	.
.	.	2F/	1c
1GG	1D	1G	.
.	.	.	2B/
=58	=59	=58	=59
2r	1C	2r	0c
2G\	.	2E/	.
2A\	2r	2F/	.
4G\	2C/	2G/	.
2E\	.	.	.
.	2.E\	1C	2r
4F\	.	.	.
2G\	.	.	2c/
.	4F\	.	.
=59	=60	=59	=60
2.C/	2G\	1c	2.e/
.	2A\	.	.
4D\	.	.	4f/
2E\	2G\	2B\	2g/
2F\	2.c\	2A/	2a/
2E\	.	2r	2g/
.	4B\	.	.
2F\	2A\	2A/	2cc\
=60	=61	=60	=61
2G\	2G\	4B\	2b\
.	.	4G/	.
2D\	2F\	1d	1a
1E	1G	.	.
.	.	2c\	1g
1D	1A	1d	.
.	.	.	2f#i/
=61	=62	=61	=62
2r	1G	1r	1g
1G	.	.	.
.	2r	1d	2r
2B\	2G\	.	2g/
1A	2A\	2.c\	2e/
.	2c\	.	2f/
.	.	4c\	.
=62	=63	=62	=63
2G\	2B\	4d\	4g/
.	.	2B\	2e/
2E\	2G\	.	.
.	.	4c\	4c/
2F\	2A\	2A/	2d/
1E	1G	1B	1e
2C/	2E\	2c\	2g/
=63	=64	=63	=64
2D\	2F\	2A/	2f/
2E\	2G\	1G	4e/
.	.	.	2g/
1C	2E\	.	.
.	.	.	4f/
.	2C/	1c	2e/
1GG	1G	.	1d
.	.	2B\	.
=64	=65	=64	=65
1C	2.E\	2.c\	1c
.	4C/	8B/L	.
.	.	8A/J	.
2BB/	2D\	2G/	1r
1AA	2E\	4A/	.
.	.	2c\	.
.	2F\	.	2r
.	.	8B/L	.
.	.	8A/J	.
2GG/	2G\	2B\	2d/
=65	=66	=65	=66
1AA	2E\	2A/	2.c/
.	1A	2.c\	.
.	.	.	4d/
1C	.	.	4e/
.	.	4d\	4f/
.	2G\	2e\	2.e/
1D	1F	1A	.
.	.	.	4d/
.	.	.	2d/
=66	=67	=66	=67
2C/	[0.El	2r	[0.el
1AA	.	1A	.
2GG/	.	2B\	.
1AA	.	1c	.
=67	=68	=67	=68
0.EEl	0.E]	0.Bl	0.e]
!!LO:TX:rj:i:t=fine
!!LO:LB:i:g=z
=68||	=69||	=68||	=69||
*>D	*>D	*>D	*>D
*clefF4	*clefF4	*clefGv2	*clefG2
*k[]	*k[]	*k[]	*k[]
*M2/1	*M2/1	*M2/1	*M2/1
*met(C|)	*met(C|)	*met(C|)	*met(C|)
!!section: Benedictus
!!!OMD: Benedictus
0r	0E	0r	0r
=69	=70	=69	=70
0r	1G	0r	0r
.	1G	.	.
=70	=71	=70	=71
0r	1.A	0r	0e
.	4G\	.	.
.	4F\	.	.
=71	=72	=71	=72
0r	1E	0r	1g
.	2r	.	1g
.	2E\	.	.
=72	=73	=72	=73
0r	2D\	0r	1.a
.	1F	.	.
.	4E\	.	4g/
.	4D\	.	4f/
=73	=74	=73	=74
0r	1C	0r	1e
.	4C/	.	2r
.	4D\	.	.
.	4E\	.	2e/
.	4F\	.	.
=74	=75	=74	=75
0r	2G\	0r	2d/
.	1A	.	1f
.	4G\	.	4e/
.	4F\	.	4d/
=75	=76	=75	=76
0r	1E	0r	1c
.	4E\	.	4c/
.	4F\	.	4d/
.	4G\	.	4e/
.	4A\	.	4f/
=76	=77	=76	=77
0r	2B\	0r	2.g/
.	2c\	.	.
.	.	.	4a/
.	2B\	.	2b\
.	2A\	.	2cc\
=77	=78	=77	=78
0r	2d\	0r	2b\
.	2c\	.	1a
.	1B	.	.
.	.	.	2g#i/
=78	=79	=78	=79
0r	0Al	0r	0al
!!LO:LB:i:g=z
=79||	=80||	=79||	=80||
*>E	*>E	*>E	*>E
*clefF4	*clefF4	*clefGv2	*clefG2
*k[]	*k[]	*k[]	*k[]
*M2/1	*M2/1	*M2/1	*M2/1
*met(C|)	*met(C|)	*met(C|)	*met(C|)
!!section: Qui venit
!!!OMD: Qui venit
[0F	0r	0A	0r
=80	=81	=80	=81
0F_	0r	1.A	0r
.	.	2B\	.
=81	=82	=81	=82
0F_	0r	2c\	0r
.	.	1d	.
.	.	4c\	.
.	.	4B\	.
=82	=83	=82	=83
0F_	0r	2A/	0r
.	.	2.c\	.
.	.	4B\	.
.	.	4A/	.
.	.	4G/	.
=83	=84	=83	=84
0F_	0r	1F	0r
.	.	2r	.
.	.	2c\	.
=84	=85	=84	=85
0F]	0r	2d\	0r
.	.	1f	.
.	.	4e\	.
.	.	4d\	.
=85	=86	=85	=86
[0E	0r	2.c\	0r
.	.	4d\	.
.	.	2e\	.
.	.	2f\	.
=86	=87	=86	=87
0E]	0r	2e\	0r
.	.	1d	.
.	.	2c#i\	.
=87	=88	=87	=88
0Dl	0r	0dl	0r
!!LO:LB:i:g=z
=88||	=89||	=88||	=89||
*>F	*>F	*>F	*>F
*clefF4	*clefF4	*clefGv2	*clefG2
*k[]	*k[]	*k[]	*k[]
*M3/1	*M3/1	*M3/1	*M3/1
*met(O)	*met(O)	*met(O)	*met(O)
!!section: In nomine
!!!OMD: In nomine
0.r	1E	0.r	0.r
.	1.G	.	.
.	2G\	.	.
=89	=90	=89	=90
0.r	0G	0.r	1e
.	.	.	1.g
.	2r	.	.
.	[2G\	.	2g/
=90	=91	=90	=91
0.r	4G\]	0.r	1g
.	4F\	.	.
.	4E\	.	.
.	4D\	.	.
.	2C/	.	2r
.	2.c\	.	2.a/
.	4B\	.	4g/
.	4A\	.	4f/
.	4G\	.	4e/
=91	=92	=91	=92
0.r	2A\	0.r	2f/
.	2.G\	.	2.e/
.	4F\	.	4d/
.	4E\	.	4c/
.	4D\	.	4B/
.	1E	.	2c/
.	.	.	[2B/
=92	=93	=92	=93
0.r	2D\	0.r	2B/]
.	2C/	.	1A
.	1BB	.	.
.	.	.	2G#i/
.	2.AA/	.	1A
.	4BB/	.	.
=93	=94	=93	=94
0.r	4C/	0.r	4A/
.	4D\	.	4B/
.	2.E\	.	4c/
.	.	.	4d/
.	.	.	2e/
.	4F\	.	.
.	4G\	.	2f/
.	4A\	.	.
.	4B\	.	4g/
.	4A\	.	4f/
.	4G\	.	4e/
.	4F\	.	4d/
=94	=95	=94	=95
0.r	2E\	0.r	2g/
.	2D\	.	2f/
.	2A\	.	2e/
.	2G\	.	1e
.	1F	.	.
.	.	.	2d/
=95	=96	=95	=96
0.r	0.El	0.r	0.el
!!LO:TX:i:Y=40:rj:t=Osanna ut supra
=||	=||	=||	=||
*-	*-	*-	*-
!!!RDF**kern: l=long note in original notation
!!!RDF**kern: i=editorial accidental
!!!RDF**kern: V=start of tuplet marker
!!!RDF**kern: Z=end of tuplet marker
!!!ENC:	Jesse Rodin (8/14/2012)
!!!END:	2012/08/14/
!!!EED:	Jesse Rodin
!!!EEV:	2012/08/17/
!!attribution-level@Jos: 5 (doubtful)
!!!ONB:	Translated from MusicXML and edited on 2012/08/17/ by Craig Sapp
!!muse2ps: T^@{OPR}^u^@{ONM}{. }@{OTL}^C^@{COA}?\n@{SCT}^i2I150v85,85,85,150Q8c115
